X:245
T: Tiqi balujun
N: C1738
O: China, Liaoning Gaixian
S: III, 231]
R: Xiaodiao, Xiubaxian diao]
M: 2/4
L: 1/16
K: E
c2cBc2cf | e3cB2G2 | F2eee2G2 | F3EF4
B2GBc4 | e2GFE4 | C2G2GBD2 | C3B,C4
c2B2c2f2 | d3cB2G2 | F2e2e2G2 | F3EF4
B2GBc2dc | e2GFE2E2 | C2G2GBD2 | C3B,C4
B2GBc4 | e2GFE4 | c2Bcf2d2 | c8- | c8

